icons/1_Primary/GoDaddy.svg

<svg width="1024" height="1024" viewBox="0 0 1024 1024" fill="none" xmlns="http://www.w3.org/2000/svg">
<g clip-path="url(#clip0_2_2307)">
<path d="M512 1024C794.77 1024 1024 794.77 1024 512C1024 229.23 794.77 0 512 0C229.23 0 0 229.23 0 512C0 794.77 229.23 1024 512 1024Z" fill="#96DFD3"/>
<path d="M697.599 315.9C644.399 282.7 574.299 290.6 511.999 329.8C449.599 290.5 379.599 282.6 326.399 315.9C242.299 368.4 232.099 503.7 303.599 618.1C356.299 702.4 438.699 751.8 511.999 750.9C585.299 751.8 667.699 702.4 720.399 618.1C791.899 503.7 781.699 368.4 697.599 315.9ZM342.199 594C327.199 569.9 316.099 544.5 309.199 518.5C302.699 494 300.299 470 302.099 447.3C305.299 405 322.499 372.1 350.499 354.6C378.499 337.1 415.699 336 454.999 351.7C460.899 354.1 466.799 356.8 472.599 359.8C451.599 378.8 432.299 401.7 415.899 427.9C372.499 497.4 359.299 574.6 374.399 636.3C362.599 623.5 351.799 609.3 342.199 594ZM714.799 518.4C707.899 544.5 696.899 569.9 681.799 593.9C672.199 609.3 661.399 623.4 649.499 636.2C662.999 581 653.899 513.3 620.599 449.9C618.299 445.4 612.899 444 608.599 446.6L505.099 511.3C501.099 513.8 499.899 519 502.399 523L517.599 547.3C520.099 551.3 525.299 552.5 529.299 550L596.399 508.1C598.599 514.5 600.699 521 602.399 527.6C608.899 552.1 611.299 576.1 609.499 598.8C606.299 641.1 589.099 674 561.099 691.5C547.099 700.3 530.799 704.9 513.099 705.4H510.899C493.199 704.9 476.899 700.3 462.899 691.5C434.899 674 417.699 641.1 414.499 598.8C412.799 576.1 415.199 552.1 421.599 527.6C428.399 501.5 439.499 476.1 454.599 452.1C469.599 428 487.599 406.9 507.999 389.3C527.199 372.7 547.699 360.1 568.899 351.7C608.299 336 645.399 337.1 673.399 354.6C701.399 372.1 718.599 405 721.799 447.3C723.599 469.9 721.199 493.9 714.799 518.4Z" fill="white"/>
</g>
<defs>
<clipPath id="clip0_2_2307">
<rect width="1024" height="1024" fill="white"/>
</clipPath>
</defs>
</svg>

<svg xmlns="http://www.w3.org/2000/svg" viewBox="0 0 1024 1024">
   <circle cx="512" cy="512" r="512" style="fill:#1bdbdb"/>
   <path d="M697.6 315.9c-53.2-33.2-123.3-25.3-185.6 13.9-62.4-39.3-132.4-47.2-185.6-13.9-84.1 52.5-94.3 187.8-22.8 302.2 52.7 84.3 135.1 133.7 208.4 132.8 73.3.9 155.7-48.5 208.4-132.8 71.5-114.4 61.3-249.7-22.8-302.2M342.2 594c-15-24.1-26.1-49.5-33-75.5-6.5-24.5-8.9-48.5-7.1-71.2 3.2-42.3 20.4-75.2 48.4-92.7s65.2-18.6 104.5-2.9c5.9 2.4 11.8 5.1 17.6 8.1-21 19-40.3 41.9-56.7 68.1-43.4 69.5-56.6 146.7-41.5 208.4-11.8-12.8-22.6-27-32.2-42.3m372.6-75.6c-6.9 26.1-17.9 51.5-33 75.5-9.6 15.4-20.4 29.5-32.3 42.3 13.5-55.2 4.4-122.9-28.9-186.3-2.3-4.5-7.7-5.9-12-3.3l-103.5 64.7c-4 2.5-5.2 7.7-2.7 11.7l15.2 24.3c2.5 4 7.7 5.2 11.7 2.7l67.1-41.9c2.2 6.4 4.3 12.9 6 19.5 6.5 24.5 8.9 48.5 7.1 71.2-3.2 42.3-20.4 75.2-48.4 92.7-14 8.8-30.3 13.4-48 13.9h-2.2c-17.7-.5-34-5.1-48-13.9-28-17.5-45.2-50.4-48.4-92.7-1.7-22.7.7-46.7 7.1-71.2 6.8-26.1 17.9-51.5 33-75.5 15-24.1 33-45.2 53.4-62.8 19.2-16.6 39.7-29.2 60.9-37.6 39.4-15.7 76.5-14.6 104.5 2.9s45.2 50.4 48.4 92.7c1.8 22.6-.6 46.6-7 71.1" style="fill:#fff"/>
</svg>
